public/images/icons/navigation/blog.svg

<svg xmlns="http://www.w3.org/2000/svg" viewBox="0 0 50 50">
    <path d="M 5.101563 3 C 3.945313 3 3 3.945313 3 5.101563 L 3 44.902344 C 3 46.054688 3.945313 47 5.101563 47 L 16.902344 47 C 17.300781 47 17.675781 46.894531 17.996094 46.714844 C 18.292969 46.890625 18.632813 47 19 47 L 31 47 C 31.378906 47 31.730469 46.886719 32.035156 46.699219 C 32.347656 46.886719 32.710938 47 33.097656 47 L 44.902344 47 C 46.054688 47 47 46.167969 47 45 L 47 5.101563 C 47 3.945313 46.054688 3 44.902344 3 L 33.097656 3 C 31.945313 3 31 3.945313 31 5.101563 L 31 12 L 19 12 L 19 5.101563 C 19 3.945313 18.054688 3 16.902344 3 Z M 5.101563 5 L 16.902344 5 C 16.945313 5 17 5.054688 17 5.101563 L 17 45 C 17 44.832031 16.945313 45 16.902344 45 L 5.101563 45 C 5.054688 45 5 44.945313 5 44.902344 L 5 5.101563 C 5 5.054688 5.054688 5 5.101563 5 Z M 33.097656 5 L 44.902344 5 C 44.945313 5 45 5.054688 45 5.101563 L 45 45 C 45 44.832031 44.945313 45 44.902344 45 L 33.097656 45 C 33.054688 45 33 44.945313 33 44.902344 L 33 5.101563 C 33 5.054688 33.054688 5 33.097656 5 Z M 8 11 C 7.640625 10.996094 7.304688 11.183594 7.121094 11.496094 C 6.941406 11.808594 6.941406 12.191406 7.121094 12.503906 C 7.304688 12.816406 7.640625 13.003906 8 13 L 14 13 C 14.359375 13.003906 14.695313 12.816406 14.878906 12.503906 C 15.058594 12.191406 15.058594 11.808594 14.878906 11.496094 C 14.695313 11.183594 14.359375 10.996094 14 11 Z M 36 11 C 35.640625 10.996094 35.304688 11.183594 35.121094 11.496094 C 34.941406 11.808594 34.941406 12.191406 35.121094 12.503906 C 35.304688 12.816406 35.640625 13.003906 36 13 L 42 13 C 42.359375 13.003906 42.695313 12.816406 42.878906 12.503906 C 43.058594 12.191406 43.058594 11.808594 42.878906 11.496094 C 42.695313 11.183594 42.359375 10.996094 42 11 Z M 19 14 L 31 14 L 31 45 L 19 45 Z M 22 20 C 21.640625 19.996094 21.304688 20.183594 21.121094 20.496094 C 20.941406 20.808594 20.941406 21.191406 21.121094 21.503906 C 21.304688 21.816406 21.640625 22.003906 22 22 L 28 22 C 28.359375 22.003906 28.695313 21.816406 28.878906 21.503906 C 29.058594 21.191406 29.058594 20.808594 28.878906 20.496094 C 28.695313 20.183594 28.359375 19.996094 28 20 Z M 8 34 C 7.640625 33.996094 7.304688 34.183594 7.121094 34.496094 C 6.941406 34.808594 6.941406 35.191406 7.121094 35.503906 C 7.304688 35.816406 7.640625 36.003906 8 36 L 14 36 C 14.359375 36.003906 14.695313 35.816406 14.878906 35.503906 C 15.058594 35.191406 15.058594 34.808594 14.878906 34.496094 C 14.695313 34.183594 14.359375 33.996094 14 34 Z M 36 34 C 35.640625 33.996094 35.304688 34.183594 35.121094 34.496094 C 34.941406 34.808594 34.941406 35.191406 35.121094 35.503906 C 35.304688 35.816406 35.640625 36.003906 36 36 L 42 36 C 42.359375 36.003906 42.695313 35.816406 42.878906 35.503906 C 43.058594 35.191406 43.058594 34.808594 42.878906 34.496094 C 42.695313 34.183594 42.359375 33.996094 42 34 Z M 8 38 C 7.640625 37.996094 7.304688 38.183594 7.121094 38.496094 C 6.941406 38.808594 6.941406 39.191406 7.121094 39.503906 C 7.304688 39.816406 7.640625 40.003906 8 40 L 14 40 C 14.359375 40.003906 14.695313 39.816406 14.878906 39.503906 C 15.058594 39.191406 15.058594 38.808594 14.878906 38.496094 C 14.695313 38.183594 14.359375 37.996094 14 38 Z M 36 38 C 35.640625 37.996094 35.304688 38.183594 35.121094 38.496094 C 34.941406 38.808594 34.941406 39.191406 35.121094 39.503906 C 35.304688 39.816406 35.640625 40.003906 36 40 L 42 40 C 42.359375 40.003906 42.695313 39.816406 42.878906 39.503906 C 43.058594 39.191406 43.058594 38.808594 42.878906 38.496094 C 42.695313 38.183594 42.359375 37.996094 42 38 Z M 22 39 C 21.449219 39 21 39.449219 21 40 C 21 40.550781 21.449219 41 22 41 L 28.050781 41 C 28.023438 40.667969 28 40.339844 28 40 C 28 39.660156 28.023438 39.332031 28.050781 39 Z">
    </path>
</svg>

<!-- 
<svg xmlns="http://www.w3.org/2000/svg" viewBox="0 0 50 50">
    <path d="M 5.8125 2 C 5.335938 2.089844 4.992188 2.511719 5 3 L 5 8 L 2.84375 8 C 1.28125 8 0 9.28125 0 10.84375 L 0 44.15625 C 0 45.71875 1.28125 47 2.84375 47 L 19.53125 47 C 20.003906 47.730469 21.621094 50 25 50 C 28.378906 50 29.996094 47.730469 30.46875 47 L 47.15625 47 C 48.71875 47 50 45.71875 50 44.15625 L 50 10.84375 C 50 9.28125 48.71875 8 47.15625 8 L 45 8 L 45 3 C 45 2.449219 44.550781 2 44 2 C 36.367188 2 31.4375 3.542969 28.40625 5.125 C 26.890625 5.917969 25.859375 6.691406 25.1875 7.3125 C 25.105469 7.386719 25.070313 7.429688 25 7.5 C 24.929688 7.429688 24.894531 7.386719 24.8125 7.3125 C 24.140625 6.691406 23.109375 5.917969 21.59375 5.125 C 18.5625 3.542969 13.632813 2 6 2 C 5.96875 2 5.9375 2 5.90625 2 C 5.875 2 5.84375 2 5.8125 2 Z M 7 4.0625 C 13.738281 4.199219 18.074219 5.527344 20.65625 6.875 C 22.015625 7.582031 22.921875 8.308594 23.46875 8.8125 C 23.898438 9.207031 23.9375 9.320313 24 9.40625 L 24 41.25 C 23.335938 40.886719 22.609375 40.480469 21.40625 40.0625 C 18.554688 39.074219 13.878906 38.160156 7 38.0625 Z M 43 4.0625 L 43 38.0625 C 36.121094 38.160156 31.445313 39.074219 28.59375 40.0625 C 27.390625 40.480469 26.664063 40.886719 26 41.25 L 26 9.40625 C 26.0625 9.320313 26.101563 9.207031 26.53125 8.8125 C 27.078125 8.308594 27.984375 7.582031 29.34375 6.875 C 31.925781 5.527344 36.261719 4.199219 43 4.0625 Z M 2.84375 10 L 5 10 L 5 39 C 5 39.550781 5.449219 40 6 40 C 13.367188 40 18.023438 40.980469 20.78125 41.9375 C 22.160156 42.414063 23.042969 42.882813 23.59375 43.21875 C 24.023438 43.480469 24.183594 43.601563 24.25 43.65625 C 24.472656 43.898438 24.800781 44.015625 25.125 43.96875 C 25.136719 43.96875 25.144531 43.96875 25.15625 43.96875 C 25.316406 43.941406 25.464844 43.878906 25.59375 43.78125 C 25.675781 43.730469 25.75 43.667969 25.8125 43.59375 C 25.917969 43.511719 26.097656 43.40625 26.40625 43.21875 C 26.957031 42.882813 27.839844 42.414063 29.21875 41.9375 C 31.976563 40.980469 36.632813 40 44 40 C 44.550781 40 45 39.550781 45 39 L 45 10 L 47.15625 10 C 47.632813 10 48 10.363281 48 10.84375 L 48 44.15625 C 48 44.636719 47.632813 45 47.15625 45 L 30 45 C 29.640625 44.996094 29.304688 45.1875 29.125 45.5 C 29.125 45.5 27.730469 48 25 48 C 22.269531 48 20.875 45.5 20.875 45.5 C 20.695313 45.1875 20.359375 44.996094 20 45 L 2.84375 45 C 2.367188 45 2 44.636719 2 44.15625 L 2 10.84375 C 2 10.363281 2.367188 10 2.84375 10 Z">
    </path>
</svg>
-->

<svg xmlns="http://www.w3.org/2000/svg" viewBox="0 0 50 50"><path d="M5.102 3A2.107 2.107 0 0 0 3 5.102v39.8C3 46.055 3.945 47 5.102 47h11.8a2.23 2.23 0 0 0 1.094-.285c.297.176.637.285 1.004.285h12c.379 0 .73-.113 1.035-.3.313.187.676.3 1.063.3h11.804C46.055 47 47 46.168 47 45V5.102A2.106 2.106 0 0 0 44.902 3H33.098A2.106 2.106 0 0 0 31 5.102V12H19V5.102A2.106 2.106 0 0 0 16.902 3zm0 2h11.8c.043 0 .098.055.098.102V45c0-.168-.055 0-.098 0h-11.8C5.055 45 5 44.945 5 44.902v-39.8C5 5.055 5.055 5 5.102 5zm27.996 0h11.804c.043 0 .098.055.098.102V45c0-.168-.055 0-.098 0H33.098c-.043 0-.098-.055-.098-.098v-39.8c0-.047.055-.102.098-.102zM8 11a1.006 1.006 0 0 0-.879.496 1.01 1.01 0 0 0 0 1.008c.184.312.52.5.879.496h6c.36.004.695-.184.879-.496a1.01 1.01 0 0 0 0-1.008c-.184-.312-.52-.5-.879-.496zm28 0a1.006 1.006 0 0 0-.879.496 1.01 1.01 0 0 0 0 1.008c.184.312.52.5.879.496h6c.36.004.695-.184.879-.496a1.01 1.01 0 0 0 0-1.008c-.184-.312-.52-.5-.879-.496zm-17 3h12v31H19zm3 6a1.006 1.006 0 0 0-.879.496 1.01 1.01 0 0 0 0 1.008c.184.312.52.5.879.496h6c.36.004.695-.184.879-.496a1.01 1.01 0 0 0 0-1.008c-.184-.312-.52-.5-.879-.496zM8 34a1.006 1.006 0 0 0-.879.496 1.01 1.01 0 0 0 0 1.008c.184.312.52.5.879.496h6c.36.004.695-.184.879-.496a1.01 1.01 0 0 0 0-1.008c-.184-.312-.52-.5-.879-.496zm28 0a1.006 1.006 0 0 0-.879.496 1.01 1.01 0 0 0 0 1.008c.184.312.52.5.879.496h6c.36.004.695-.184.879-.496a1.01 1.01 0 0 0 0-1.008c-.184-.312-.52-.5-.879-.496zM8 38a1.006 1.006 0 0 0-.879.496 1.01 1.01 0 0 0 0 1.008c.184.312.52.5.879.496h6c.36.004.695-.184.879-.496a1.01 1.01 0 0 0 0-1.008c-.184-.312-.52-.5-.879-.496zm28 0a1.006 1.006 0 0 0-.879.496 1.01 1.01 0 0 0 0 1.008c.184.312.52.5.879.496h6c.36.004.695-.184.879-.496a1.01 1.01 0 0 0 0-1.008c-.184-.312-.52-.5-.879-.496zm-14 1c-.55 0-1 .45-1 1s.45 1 1 1h6.05c-.027-.332-.05-.66-.05-1 0-.34.023-.668.05-1z"/></svg>
